public/blog/ko-seollal-2026-destinations.svg

<svg xmlns="http://www.w3.org/2000/svg" fill="none" viewBox="0 0 800 220"><rect width="800" height="220" fill="#f7f6f2" rx="16"/><rect width="176" height="172" x="24" y="24" fill="#fff" stroke="#e5e2da" rx="12"/><rect width="176" height="56" x="24" y="24" fill="#e8f3f3" rx="12"/><path fill="#fff" d="M24 68h176v12H24z"/><g fill="#1a6363" transform="translate(112 28)"><rect width="3" height="28" x="-1" y="18" opacity=".5" rx="1"/><path d="M0 20c-7-9-19-7-15-2 3-4 10-4 15 2M0 20c7-9 19-7 15-2-3-4-10-4-15 2" opacity=".4"/><path d="M0 18C-3 8-14 6-12 12c3-3 9-2 12 6M0 18C3 8 14 6 12 12c-3-3-9-2-12 6" opacity=".35"/></g><text x="112" y="100" fill="#1c1917" font-family="Georgia, serif" font-size="15" font-weight="700" text-anchor="middle">태국</text><text x="112" y="118" fill="#78716c" font-family="system-ui, sans-serif" font-size="11" text-anchor="middle">건기, 30°C 내외</text><text x="112" y="134" fill="#78716c" font-family="system-ui, sans-serif" font-size="11" text-anchor="middle">직항 5~6시간</text><rect width="112" height="26" x="56" y="152" fill="#1a6363" opacity=".07" rx="6"/><text x="112" y="169" fill="#1a6363" font-family="system-ui, sans-serif" font-size="11" font-weight="600" text-anchor="middle">30~50만원대</text><rect width="176" height="172" x="216" y="24" fill="#fff" stroke="#e5e2da" rx="12"/><rect width="176" height="56" x="216" y="24" fill="#eef6f1" rx="12"/><path fill="#fff" d="M216 68h176v12H216z"/><g fill="#4a7c5e" transform="translate(304 30)"><circle cy="12" r="14" opacity=".15"/><path d="M-8 18 0 6l8 12Z" opacity=".45"/><path d="m-4 18 4-8 4 8Z" opacity=".35"/><rect width="20" height="2" x="-10" y="18" opacity=".4" rx="1"/></g><text x="304" y="100" fill="#1c1917" font-family="Georgia, serif" font-size="15" font-weight="700" text-anchor="middle">베트남</text><text x="304" y="118" fill="#78716c" font-family="system-ui, sans-serif" font-size="11" text-anchor="middle">중남부 건기</text><text x="304" y="134" fill="#78716c" font-family="system-ui, sans-serif" font-size="11" text-anchor="middle">다낭 직항 4.5시간</text><rect width="112" height="26" x="248" y="152" fill="#4a7c5e" opacity=".07" rx="6"/><text x="304" y="169" fill="#4a7c5e" font-family="system-ui, sans-serif" font-size="11" font-weight="600" text-anchor="middle">가격 합리적</text><rect width="176" height="172" x="408" y="24" fill="#fff" stroke="#e5e2da" rx="12"/><rect width="176" height="56" x="408" y="24" fill="#fef0ed" rx="12"/><path fill="#fff" d="M408 68h176v12H408z"/><g fill="#d95740" transform="translate(496 30)"><circle cy="8" r="10" opacity=".2"/><path d="M-6 20c0-8 12-8 12 0Z" opacity=".4"/><rect width="16" height="3" x="-8" y="19" opacity=".35" rx="1.5"/></g><text x="496" y="100" fill="#1c1917" font-family="Georgia, serif" font-size="15" font-weight="700" text-anchor="middle">필리핀</text><text x="496" y="118" fill="#78716c" font-family="system-ui, sans-serif" font-size="11" text-anchor="middle">건기 절정, 세부 직항</text><text x="496" y="134" fill="#78716c" font-family="system-ui, sans-serif" font-size="11" text-anchor="middle">리조트 가성비 좋음</text><rect width="112" height="26" x="440" y="152" fill="#d95740" opacity=".07" rx="6"/><text x="496" y="169" fill="#d95740" font-family="system-ui, sans-serif" font-size="11" font-weight="600" text-anchor="middle">직항 4시간</text><rect width="176" height="172" x="600" y="24" fill="#fff" stroke="#e5e2da" rx="12"/><rect width="176" height="56" x="600" y="24" fill="#fdf4e7" rx="12"/><path fill="#fff" d="M600 68h176v12H600z"/><g fill="#c4872a" transform="translate(688 28)"><circle cy="6" r="10" opacity=".25"/><path d="m0 0 2-6-2 2-2-2ZM0 0l6-2-2 2 2 2ZM0 0l-6-2 2 2-2 2ZM0 0l2 6-2-2-2 2Z" opacity=".5"/><rect width="24" height="3" x="-12" y="20" opacity=".35" rx="1.5"/><path d="M-12 20c0-6 8-8 12-4 4-4 12-2 12 4Z" opacity=".25"/></g><text x="688" y="100" fill="#1c1917" font-family="Georgia, serif" font-size="15" font-weight="700" text-anchor="middle">괌</text><text x="688" y="118" fill="#78716c" font-family="system-ui, sans-serif" font-size="11" text-anchor="middle">건기, 비자 면제</text><text x="688" y="134" fill="#78716c" font-family="system-ui, sans-serif" font-size="11" text-anchor="middle">가족 여행 인기 구간</text><rect width="112" height="26" x="632" y="152" fill="#c4872a" opacity=".07" rx="6"/><text x="688" y="169" fill="#c4872a" font-family="system-ui, sans-serif" font-size="11" font-weight="600" text-anchor="middle">직항 4시간</text></svg>

<svg xmlns="http://www.w3.org/2000/svg" viewBox="0 0 800 220" fill="none">
  <rect width="800" height="220" rx="16" fill="#F7F6F2"/>

  <!-- 태국 -->
  <rect x="24" y="24" width="176" height="172" rx="12" fill="#FFF" stroke="#E5E2DA" stroke-width="1"/>
  <rect x="24" y="24" width="176" height="56" rx="12" fill="#E8F3F3"/>
  <rect x="24" y="68" width="176" height="12" fill="#FFF"/>
  <g transform="translate(112,28)">
    <rect x="-1" y="18" width="3" height="28" rx="1" fill="#1A6363" opacity="0.5"/>
    <path d="M0 20C-7 11-19 13-15 18C-12 14-5 14 0 20Z" fill="#1A6363" opacity="0.4"/>
    <path d="M0 20C7 11 19 13 15 18C12 14 5 14 0 20Z" fill="#1A6363" opacity="0.4"/>
    <path d="M0 18C-3 8-14 6-12 12C-9 9-3 10 0 18Z" fill="#1A6363" opacity="0.35"/>
    <path d="M0 18C3 8 14 6 12 12C9 9 3 10 0 18Z" fill="#1A6363" opacity="0.35"/>
  </g>
  <text x="112" y="100" text-anchor="middle" font-family="Georgia, serif" font-size="15" font-weight="700" fill="#1C1917">태국</text>
  <text x="112" y="118" text-anchor="middle" font-family="system-ui, sans-serif" font-size="11" fill="#78716C">건기, 30°C 내외</text>
  <text x="112" y="134" text-anchor="middle" font-family="system-ui, sans-serif" font-size="11" fill="#78716C">직항 5~6시간</text>
  <rect x="56" y="152" width="112" height="26" rx="6" fill="#1A6363" opacity="0.07"/>
  <text x="112" y="169" text-anchor="middle" font-family="system-ui, sans-serif" font-size="11" font-weight="600" fill="#1A6363">30~50만원대</text>

  <!-- 베트남 -->
  <rect x="216" y="24" width="176" height="172" rx="12" fill="#FFF" stroke="#E5E2DA" stroke-width="1"/>
  <rect x="216" y="24" width="176" height="56" rx="12" fill="#EEF6F1"/>
  <rect x="216" y="68" width="176" height="12" fill="#FFF"/>
  <g transform="translate(304,30)">
    <circle cx="0" cy="12" r="14" fill="#4A7C5E" opacity="0.15"/>
    <path d="M-8 18L0 6L8 18Z" fill="#4A7C5E" opacity="0.45"/>
    <path d="M-4 18L0 10L4 18Z" fill="#4A7C5E" opacity="0.35"/>
    <rect x="-10" y="18" width="20" height="2" rx="1" fill="#4A7C5E" opacity="0.4"/>
  </g>
  <text x="304" y="100" text-anchor="middle" font-family="Georgia, serif" font-size="15" font-weight="700" fill="#1C1917">베트남</text>
  <text x="304" y="118" text-anchor="middle" font-family="system-ui, sans-serif" font-size="11" fill="#78716C">중남부 건기</text>
  <text x="304" y="134" text-anchor="middle" font-family="system-ui, sans-serif" font-size="11" fill="#78716C">다낭 직항 4.5시간</text>
  <rect x="248" y="152" width="112" height="26" rx="6" fill="#4A7C5E" opacity="0.07"/>
  <text x="304" y="169" text-anchor="middle" font-family="system-ui, sans-serif" font-size="11" font-weight="600" fill="#4A7C5E">가격 합리적</text>

  <!-- 필리핀 -->
  <rect x="408" y="24" width="176" height="172" rx="12" fill="#FFF" stroke="#E5E2DA" stroke-width="1"/>
  <rect x="408" y="24" width="176" height="56" rx="12" fill="#FEF0ED"/>
  <rect x="408" y="68" width="176" height="12" fill="#FFF"/>
  <g transform="translate(496,30)">
    <circle cx="0" cy="8" r="10" fill="#D95740" opacity="0.2"/>
    <path d="M-6 20C-6 12 6 12 6 20Z" fill="#D95740" opacity="0.4"/>
    <rect x="-8" y="19" width="16" height="3" rx="1.5" fill="#D95740" opacity="0.35"/>
  </g>
  <text x="496" y="100" text-anchor="middle" font-family="Georgia, serif" font-size="15" font-weight="700" fill="#1C1917">필리핀</text>
  <text x="496" y="118" text-anchor="middle" font-family="system-ui, sans-serif" font-size="11" fill="#78716C">건기 절정, 세부 직항</text>
  <text x="496" y="134" text-anchor="middle" font-family="system-ui, sans-serif" font-size="11" fill="#78716C">리조트 가성비 좋음</text>
  <rect x="440" y="152" width="112" height="26" rx="6" fill="#D95740" opacity="0.07"/>
  <text x="496" y="169" text-anchor="middle" font-family="system-ui, sans-serif" font-size="11" font-weight="600" fill="#D95740">직항 4시간</text>

  <!-- 괌 -->
  <rect x="600" y="24" width="176" height="172" rx="12" fill="#FFF" stroke="#E5E2DA" stroke-width="1"/>
  <rect x="600" y="24" width="176" height="56" rx="12" fill="#FDF4E7"/>
  <rect x="600" y="68" width="176" height="12" fill="#FFF"/>
  <g transform="translate(688,28)">
    <circle cx="0" cy="6" r="10" fill="#C4872A" opacity="0.25"/>
    <path d="M0 0L2 -6L0 -4L-2 -6Z" fill="#C4872A" opacity="0.5"/>
    <path d="M0 0L6 -2L4 0L6 2Z" fill="#C4872A" opacity="0.5"/>
    <path d="M0 0L-6 -2L-4 0L-6 2Z" fill="#C4872A" opacity="0.5"/>
    <path d="M0 0L2 6L0 4L-2 6Z" fill="#C4872A" opacity="0.5"/>
    <rect x="-12" y="20" width="24" height="3" rx="1.5" fill="#C4872A" opacity="0.35"/>
    <path d="M-12 20C-12 14-4 12 0 16C4 12 12 14 12 20Z" fill="#C4872A" opacity="0.25"/>
  </g>
  <text x="688" y="100" text-anchor="middle" font-family="Georgia, serif" font-size="15" font-weight="700" fill="#1C1917">괌</text>
  <text x="688" y="118" text-anchor="middle" font-family="system-ui, sans-serif" font-size="11" fill="#78716C">건기, 비자 면제</text>
  <text x="688" y="134" text-anchor="middle" font-family="system-ui, sans-serif" font-size="11" fill="#78716C">가족 여행 인기 구간</text>
  <rect x="632" y="152" width="112" height="26" rx="6" fill="#C4872A" opacity="0.07"/>
  <text x="688" y="169" text-anchor="middle" font-family="system-ui, sans-serif" font-size="11" font-weight="600" fill="#C4872A">직항 4시간</text>
</svg>
